<?xml version="1.0" encoding="UTF-8"?>
<map version="1.10" tiledversion="1.12.2" orientation="orthogonal" renderorder="right-down" width="120" height="120" tilewidth="50" tileheight="50" infinite="0" backgroundcolor="#c0c0c0" nextlayerid="8" nextobjectid="413">
 <tileset firstgid="1" source="../tileset/terreno.tsx"/>
 <tileset firstgid="13" source="../tileset/montagne_fiumi.tsx"/>
 <tileset firstgid="33" source="../tileset/natura.tsx"/>
 <tileset firstgid="68" source="../tileset/risorse.tsx"/>
 <tileset firstgid="82" source="../tileset/edifici.tsx"/>
 <tileset firstgid="117" source="../tileset/unita.tsx"/>
 <tileset firstgid="124" source="../tileset/nemici.tsx"/>
 <tileset firstgid="141" source="../tileset/citta.tsx"/>
 <tileset firstgid="179" source="../tileset/regia.tsx"/>
 <imagelayer id="1" name="sfondo" locked="1" repeatx="1" repeaty="1">
  <image source="../img/sfondi/green1.png" width="281" height="250"/>
 </imagelayer>
 <objectgroup draworder="index" id="2" name="suolo"/>
 <objectgroup draworder="index" id="3" name="erba e spighe">
  <object id="6" gid="42" x="900" y="1452" width="172" height="298"/>
  <object id="7" gid="42" x="1028" y="1408" width="172" height="298"/>
  <object id="8" gid="42" x="1012" y="1572" width="172" height="298"/>
  <object id="9" gid="42" x="1160" y="1568" width="172" height="298"/>
  <object id="10" gid="42" x="1188" y="1396" width="172" height="298"/>
  <object id="11" gid="42" x="1300" y="1516" width="172" height="298"/>
  <object id="12" gid="42" x="1360" y="1660" width="172" height="298"/>
  <object id="13" gid="42" x="1224" y="1708" width="172" height="298"/>
  <object id="14" gid="42" x="1064" y="1716" width="172" height="298"/>
  <object id="15" gid="42" x="916" y="1764" width="172" height="298"/>
  <object id="16" gid="42" x="860" y="1608" width="172" height="298"/>
  <object id="17" gid="42" x="752" y="1428" width="172" height="298"/>
  <object id="18" gid="42" x="876" y="1280" width="172" height="298"/>
  <object id="19" gid="42" x="1020" y="1236" width="172" height="298"/>
  <object id="20" gid="42" x="1164" y="1232" width="172" height="298"/>
  <object id="21" gid="42" x="920" y="1120" width="172" height="298"/>
  <object id="22" gid="42" x="724" y="1200" width="172" height="298"/>
  <object id="23" gid="42" x="800" y="1076" width="172" height="298"/>
  <object id="24" gid="42" x="608" y="1340" width="172" height="298"/>
  <object id="25" gid="5" x="5104" y="5544" width="2152" height="1170"/>
  <object id="26" gid="2147483655" x="4120" y="2624" width="1432" height="1514"/>
  <object id="27" gid="105" x="5585" y="1334" width="586" height="274"/>
  <object id="28" gid="105" x="4736" y="1334" width="586" height="274"/>
  <object id="29" gid="111" x="5160" y="1332" width="588" height="400"/>
  <object id="43" gid="5" x="4104" y="3416" width="2152" height="1170"/>
  <object id="44" gid="7" x="5008" y="3912" width="1432" height="1514"/>
  <object id="45" gid="12" x="5208" y="5064" width="662" height="856"/>
  <object id="46" gid="1" x="5096" y="3320" width="124" height="74"/>
  <object id="47" gid="77" x="235.394" y="2410.79" width="138" height="138"/>
  <object id="48" gid="77" x="5576" y="5440" width="138" height="138"/>
  <object id="50" gid="81" x="3680" y="2992" width="118" height="200"/>
  <object id="51" gid="97" x="896" y="2528" width="508" height="510"/>
  <object id="52" gid="6" x="2768" y="3200" width="2562" height="1642"/>
  <object id="53" gid="2147483653" x="3304" y="3988" width="2152" height="1170"/>
  <object id="54" gid="12" x="2192" y="4900" width="830" height="856"/>
  <object id="55" gid="6" x="568" y="5308" width="2562" height="1642"/>
  <object id="56" gid="136" x="428" y="5488" width="442" height="382"/>
  <object id="57" gid="136" x="944" y="5640" width="442" height="382"/>
  <object id="58" gid="126" x="1728" y="5800" width="420" height="332"/>
  <object id="59" gid="126" x="2280" y="5692" width="420" height="332"/>
  <object id="60" gid="126" x="2772" y="5768" width="420" height="332"/>
  <object id="61" gid="128" x="772" y="5200" width="100" height="234"/>
  <object id="62" gid="128" x="912" y="5252" width="100" height="234"/>
  <object id="63" gid="128" x="1000" y="5336" width="100" height="234"/>
  <object id="64" gid="128" x="1116" y="5392" width="100" height="234"/>
  <object id="65" gid="124" x="1992" y="5462" width="64" height="136"/>
  <object id="66" gid="124" x="2116" y="5476" width="64" height="136"/>
  <object id="67" gid="124" x="2248" y="5460" width="64" height="136"/>
  <object id="68" gid="124" x="2326" y="5484" width="64" height="136"/>
  <object id="69" gid="124" x="2422" y="5510" width="64" height="136"/>
  <object id="70" gid="137" x="220" y="5264" width="246" height="394"/>
  <object id="71" gid="137" x="1892" y="5588" width="246" height="394"/>
  <object id="72" gid="137" x="2692" y="5524" width="246" height="394"/>
  <object id="73" gid="98" x="1136" y="3072" width="448" height="356"/>
  <object id="74" gid="91" x="408" y="2756" width="204" height="318"/>
  <object id="75" gid="91" x="720" y="2814.67" width="204" height="318"/>
  <object id="76" gid="91" x="506.667" y="2982.67" width="204" height="318"/>
  <object id="77" gid="115" x="2101.33" y="2886.67" width="254" height="408"/>
  <object id="78" gid="115" x="1429.33" y="3248" width="254" height="408"/>
  <object id="79" gid="115" x="4900" y="1450" width="254" height="408"/>
  <object id="80" gid="115" x="5487" y="1431" width="254" height="408"/>
  <object id="81" gid="62" x="3452" y="3252" width="888" height="570"/>
  <object id="82" gid="61" x="5575.76" y="4803.03" width="962" height="570"/>
  <object id="83" gid="59" x="360" y="5864" width="74" height="48"/>
  <object id="84" gid="59" x="4560" y="6224" width="74" height="48"/>
  <object id="85" gid="20" x="926" y="-460" width="1493" height="825"/>
  <object id="86" gid="18" x="-193" y="3448" width="2179" height="993"/>
  <object id="87" gid="26" x="1315" y="3553" width="1098" height="542"/>
  <object id="88" gid="29" x="3424" y="3709" width="961" height="583"/>
  <object id="89" gid="51" x="802" y="4034" width="172" height="298"/>
  <object id="90" gid="51" x="774" y="4206" width="172" height="298"/>
  <object id="91" gid="51" x="928" y="4194" width="172" height="298"/>
  <object id="92" gid="51" x="950" y="4310" width="172" height="298"/>
  <object id="93" gid="51" x="912" y="4068" width="172" height="298"/>
  <object id="94" gid="51" x="1048" y="4168" width="172" height="298"/>
  <object id="95" gid="51" x="1128" y="4256" width="172" height="298"/>
  <object id="96" gid="51" x="1254" y="4200" width="172" height="298"/>
  <object id="97" gid="51" x="1142" y="4068" width="172" height="298"/>
  <object id="98" gid="51" x="1054" y="3966" width="172" height="298"/>
  <object id="99" gid="51" x="868" y="3912" width="172" height="298"/>
  <object id="100" gid="51" x="752" y="3764" width="172" height="298"/>
  <object id="101" gid="51" x="918" y="3776" width="172" height="298"/>
  <object id="102" gid="51" x="1002" y="3878" width="172" height="298"/>
  <object id="103" gid="51" x="1128" y="3804" width="172" height="298"/>
  <object id="104" gid="51" x="1220" y="3920" width="172" height="298"/>
  <object id="105" gid="51" x="1294" y="4018" width="172" height="298"/>
  <object id="106" gid="51" x="1366" y="4108" width="172" height="298"/>
  <object id="107" gid="51" x="1428" y="4018" width="172" height="298"/>
  <object id="108" gid="51" x="1378" y="3890" width="172" height="298"/>
  <object id="109" gid="51" x="1296" y="3794" width="172" height="298"/>
  <object id="110" gid="51" x="1452" y="3814" width="172" height="298"/>
  <object id="111" gid="51" x="1558" y="3956" width="172" height="298"/>
  <object id="112" gid="51" x="666" y="3662" width="172" height="298"/>
  <object id="113" gid="51" x="838" y="3664" width="172" height="298"/>
  <object id="114" gid="51" x="1012" y="3694" width="172" height="298"/>
  <object id="115" gid="51" x="526" y="3642" width="172" height="298"/>
  <object id="116" gid="51" x="376" y="3636" width="172" height="298"/>
  <object id="117" gid="51" x="256" y="3572" width="172" height="298"/>
  <object id="118" gid="51" x="140" y="3520" width="172" height="298"/>
  <object id="119" gid="51" x="-4" y="3448" width="172" height="298"/>
  <object id="120" gid="51" x="1694" y="3910" width="172" height="298"/>
  <object id="121" gid="51" x="1560" y="3776" width="172" height="298"/>
  <object id="122" gid="51" x="232" y="3412" width="172" height="298"/>
  <object id="123" gid="51" x="102" y="3376" width="172" height="298"/>
  <object id="124" gid="51" x="46" y="3248" width="172" height="298"/>
  <object id="125" gid="51" x="200" y="3258" width="172" height="298"/>
  <object id="126" gid="51" x="158" y="3138" width="172" height="298"/>
  <object id="127" gid="51" x="34" y="3058" width="172" height="298"/>
  <object id="128" gid="51" x="116" y="2998" width="172" height="298"/>
  <object id="129" gid="51" x="8" y="2890" width="172" height="298"/>
  <object id="130" gid="51" x="138" y="2838" width="172" height="298"/>
  <object id="131" gid="51" x="-8" y="2734" width="172" height="298"/>
  <object id="132" gid="51" x="184" y="2934" width="172" height="298"/>
  <object id="133" gid="11" x="5616" y="3776" width="1478" height="856"/>
  <object id="134" gid="9" x="2880" y="3088" width="1470" height="398"/>
  <object id="135" gid="11" x="1544" y="3008" width="1478" height="856"/>
  <object id="136" gid="5" x="496" y="2240" width="2152" height="1170"/>
  <object id="137" gid="62" x="703" y="3261" width="888" height="570"/>
  <object id="138" gid="60" x="1218.18" y="3836.36" width="932" height="586"/>
  <object id="139" gid="61" x="1436" y="5132" width="962" height="570"/>
  <object id="140" gid="51" x="5018.18" y="5190.91" width="172" height="298"/>
  <object id="141" gid="51" x="4933.33" y="5093.94" width="172" height="298"/>
  <object id="142" gid="51" x="5012.12" y="5254.55" width="172" height="298"/>
  <object id="143" gid="51" x="4930.3" y="5318.18" width="172" height="298"/>
  <object id="144" gid="51" x="4875.76" y="5178.79" width="172" height="298"/>
  <object id="145" gid="51" x="4815.15" y="5384.85" width="172" height="298"/>
  <object id="146" gid="51" x="4912.12" y="5457.58" width="172" height="298"/>
  <object id="147" gid="51" x="5021.21" y="5593.94" width="172" height="298"/>
  <object id="148" gid="51" x="4900" y="5569.7" width="172" height="298"/>
  <object id="149" gid="51" x="4721.21" y="5536.36" width="172" height="298"/>
  <object id="150" gid="51" x="4766.67" y="5284.85" width="172" height="298"/>
  <object id="151" gid="51" x="4778.79" y="5136.36" width="172" height="298"/>
  <object id="152" gid="51" x="4842.42" y="4984.85" width="172" height="298"/>
  <object id="153" gid="51" x="5109.09" y="5733.33" width="172" height="298"/>
  <object id="154" gid="51" x="5242.42" y="5769.7" width="172" height="298"/>
  <object id="155" gid="51" x="5354.55" y="5842.42" width="172" height="298"/>
  <object id="156" gid="51" x="5521.21" y="5921.21" width="172" height="298"/>
  <object id="157" gid="51" x="5633.33" y="5993.94" width="172" height="298"/>
  <object id="158" gid="51" x="5436.36" y="5987.88" width="172" height="298"/>
  <object id="159" gid="51" x="5272.73" y="5948.48" width="172" height="298"/>
  <object id="160" gid="51" x="5121.21" y="5884.85" width="172" height="298"/>
  <object id="161" gid="51" x="4975.76" y="5775.76" width="172" height="298"/>
  <object id="162" gid="51" x="4821.21" y="5654.55" width="172" height="298"/>
  <object id="163" gid="51" x="4675.76" y="5403.03" width="172" height="298"/>
  <object id="164" gid="51" x="4803.03" y="5490.91" width="172" height="298"/>
  <object id="165" gid="51" x="4766.67" y="5706.06" width="172" height="298"/>
  <object id="166" gid="51" x="4887.88" y="5827.27" width="172" height="298"/>
  <object id="167" gid="51" x="4975.76" y="5948.48" width="172" height="298"/>
  <object id="168" gid="51" x="5206.06" y="5975.76" width="172" height="298"/>
  <object id="169" gid="51" x="5075.76" y="5987.88" width="172" height="298"/>
  <object id="170" gid="51" x="4857.58" y="5984.85" width="172" height="298"/>
  <object id="171" gid="51" x="4748.48" y="5854.55" width="172" height="298"/>
  <object id="172" gid="51" x="4609.09" y="5700" width="172" height="298"/>
  <object id="173" gid="51" x="4612.12" y="5500" width="172" height="298"/>
  <object id="174" gid="51" x="4681.82" y="5254.55" width="172" height="298"/>
  <object id="175" gid="51" x="4715.15" y="5057.58" width="172" height="298"/>
  <object id="176" gid="51" x="4578.79" y="5166.67" width="172" height="298"/>
  <object id="177" gid="51" x="4542.42" y="5281.82" width="172" height="298"/>
  <object id="178" gid="51" x="4512.12" y="5503.03" width="172" height="298"/>
  <object id="179" gid="51" x="4472.73" y="5342.42" width="172" height="298"/>
  <object id="180" gid="51" x="4496.97" y="5663.64" width="172" height="298"/>
  <object id="181" gid="51" x="4609.09" y="5824.24" width="172" height="298"/>
  <object id="182" gid="51" x="4657.58" y="5590.91" width="172" height="298"/>
  <object id="183" gid="51" x="4736.36" y="5951.52" width="172" height="298"/>
  <object id="184" gid="51" x="4593.94" y="5987.88" width="172" height="298"/>
  <object id="185" gid="51" x="4484.85" y="5866.67" width="172" height="298"/>
  <object id="186" gid="51" x="4390.91" y="5978.79" width="172" height="298"/>
  <object id="187" gid="51" x="4472.73" y="6009.09" width="172" height="298"/>
  <object id="188" gid="51" x="4245.45" y="6012.12" width="172" height="298"/>
  <object id="189" gid="51" x="4381.82" y="5857.58" width="172" height="298"/>
  <object id="190" gid="51" x="4366.67" y="5681.82" width="172" height="298"/>
  <object id="191" gid="51" x="4390.91" y="5506.06" width="172" height="298"/>
  <object id="192" gid="51" x="4336.36" y="5363.64" width="172" height="298"/>
  <object id="193" gid="51" x="4251.52" y="5845.45" width="172" height="298"/>
  <object id="194" gid="51" x="4139.39" y="5663.64" width="172" height="298"/>
  <object id="195" gid="51" x="4266.67" y="5663.64" width="172" height="298"/>
  <object id="196" gid="51" x="4287.88" y="5475.76" width="172" height="298"/>
  <object id="197" gid="51" x="4124.24" y="5518.18" width="172" height="298"/>
  <object id="198" gid="51" x="4230.3" y="5554.55" width="172" height="298"/>
  <object id="199" gid="51" x="4157.58" y="5784.85" width="172" height="298"/>
  <object id="200" gid="51" x="4154.55" y="5954.55" width="172" height="298"/>
  <object id="201" gid="51" x="4033.33" y="5987.88" width="172" height="298"/>
  <object id="202" gid="51" x="4072.73" y="5860.61" width="172" height="298"/>
  <object id="203" gid="51" x="4039.39" y="5712.12" width="172" height="298"/>
  <object id="204" gid="51" x="3948" y="5814.67" width="172" height="298"/>
  <object id="205" gid="51" x="3896" y="5944" width="172" height="298"/>
  <object id="206" gid="51" x="3698.67" y="5986.67" width="172" height="298"/>
  <object id="207" gid="51" x="3810.67" y="5993.33" width="172" height="298"/>
  <object id="208" gid="51" x="2764" y="5997.33" width="172" height="298"/>
  <object id="209" gid="51" x="2893.33" y="6004" width="172" height="298"/>
  <object id="210" gid="51" x="3000" y="6004" width="172" height="298"/>
  <object id="211" gid="51" x="3086.67" y="5996" width="172" height="298"/>
  <object id="212" gid="51" x="3206.67" y="5993.33" width="172" height="298"/>
  <object id="213" gid="51" x="3324" y="6030.67" width="172" height="298"/>
  <object id="214" gid="51" x="3466.67" y="5993.33" width="172" height="298"/>
  <object id="215" gid="51" x="3602.67" y="6024" width="172" height="298"/>
  <object id="216" gid="51" x="2985.33" y="5918.67" width="172" height="298"/>
  <object id="217" gid="51" x="3124" y="5896" width="172" height="298"/>
  <object id="218" gid="51" x="3270.67" y="5932" width="172" height="298"/>
  <object id="219" gid="51" x="3381.33" y="5948" width="172" height="298"/>
  <object id="220" gid="4" x="-752" y="2016" width="2652" height="504"/>
  <object id="221" gid="60" x="4620" y="5716" width="932" height="586"/>
  <object id="222" gid="62" x="324" y="5788" width="888" height="570"/>
  <object id="223" gid="130" x="4894" y="4644" width="212" height="230"/>
  <object id="224" gid="130" x="5006" y="4466" width="212" height="230"/>
  <object id="225" gid="130" x="4774" y="4504" width="212" height="230"/>
  <object id="226" gid="130" x="4916" y="4276" width="212" height="230"/>
  <object id="227" gid="137" x="4734" y="4322" width="246" height="394"/>
  <object id="228" gid="139" x="5262" y="5468" width="114" height="130"/>
  <object id="230" gid="140" x="5404" y="5536" width="162" height="110"/>
  <object id="231" gid="140" x="1374" y="2851" width="162" height="110"/>
  <object id="232" gid="139" x="258" y="2710" width="114" height="130"/>
  <object id="233" gid="1" x="1074.67" y="2712" width="124" height="74"/>
  <object id="234" gid="1" x="1040" y="2833.33" width="124" height="74"/>
  <object id="235" gid="120" x="5640" y="5772" width="94" height="228"/>
  <object id="236" gid="120" x="5710" y="5708" width="94" height="228"/>
  <object id="237" gid="120" x="5832" y="5674" width="94" height="228"/>
  <object id="238" gid="120" x="5763" y="5843" width="94" height="228"/>
  <object id="239" gid="120" x="5857" y="5805" width="94" height="228"/>
  <object id="240" gid="117" x="5784" y="5947" width="102" height="158"/>
  <object id="241" gid="117" x="5893" y="5952" width="102" height="158"/>
  <object id="242" gid="117" x="5951" y="5848" width="102" height="158"/>
  <object id="244" gid="13" x="2751" y="5316" width="1354" height="680"/>
  <object id="245" gid="14" x="219.97" y="1005.45" width="1354" height="680"/>
  <object id="246" gid="23" x="1950" y="3284" width="1493" height="825"/>
  <object id="247" gid="41" x="3000" y="3300" width="172" height="298"/>
  <object id="248" gid="41" x="3127.33" y="3340" width="172" height="298"/>
  <object id="249" gid="41" x="3118" y="3257.33" width="172" height="298"/>
  <object id="250" gid="41" x="3244" y="3331.33" width="172" height="298"/>
  <object id="251" gid="41" x="3331.33" y="3248" width="172" height="298"/>
  <object id="252" gid="41" x="3368.67" y="3350" width="172" height="298"/>
  <object id="253" gid="41" x="3448.67" y="3366" width="172" height="298"/>
  <object id="254" gid="41" x="3425.33" y="3483.33" width="172" height="298"/>
  <object id="255" gid="41" x="3472.67" y="3554" width="172" height="298"/>
  <object id="256" gid="41" x="3301.33" y="3325.33" width="172" height="298"/>
  <object id="257" gid="41" x="3201.33" y="3233.33" width="172" height="298"/>
  <object id="258" gid="41" x="3048" y="3349.33" width="172" height="298"/>
  <object id="259" gid="41" x="3216" y="3756" width="172" height="298"/>
  <object id="260" gid="41" x="3314" y="3690" width="172" height="298"/>
  <object id="261" gid="41" x="2444" y="4130" width="172" height="298"/>
  <object id="262" gid="41" x="2670" y="4042" width="172" height="298"/>
  <object id="263" gid="41" x="2564" y="4098" width="172" height="298"/>
  <object id="264" gid="42" x="1236.36" y="4512.12" width="172" height="298"/>
  <object id="265" gid="42" x="1357.58" y="4630.3" width="172" height="298"/>
  <object id="266" gid="42" x="1515.15" y="4636.36" width="172" height="298"/>
  <object id="267" gid="42" x="1409.09" y="4515.15" width="172" height="298"/>
  <object id="268" gid="42" x="42.4242" y="4918.18" width="172" height="298"/>
  <object id="269" gid="42" x="293.939" y="4909.09" width="172" height="298"/>
  <object id="270" gid="42" x="469.697" y="4863.64" width="172" height="298"/>
  <object id="271" gid="42" x="393.939" y="4751.52" width="172" height="298"/>
  <object id="272" gid="42" x="203.03" y="4718.18" width="172" height="298"/>
  <object id="273" gid="42" x="154.545" y="4890.91" width="172" height="298"/>
  <object id="274" gid="42" x="-9.09091" y="4621.21" width="172" height="298"/>
  <object id="275" gid="42" x="72.7273" y="4751.52" width="172" height="298"/>
  <object id="276" gid="42" x="160.606" y="4578.79" width="172" height="298"/>
  <object id="277" gid="42" x="354.545" y="4630.3" width="172" height="298"/>
  <object id="278" gid="42" x="15.1515" y="4445.45" width="172" height="298"/>
  <object id="279" gid="42" x="206.061" y="4445.45" width="172" height="298"/>
  <object id="281" x="557.576" y="4939.39">
   <capsule/>
  </object>
  <object id="327" gid="74" x="2348" y="4688" width="438" height="422"/>
  <object id="328" gid="62" x="2206" y="1606" width="888" height="570"/>
  <object id="329" gid="61" x="2924" y="2680" width="962" height="570"/>
  <object id="330" gid="33" x="2300" y="2300" width="172" height="298"/>
  <object id="331" gid="33" x="2450" y="2250" width="172" height="298"/>
  <object id="332" gid="33" x="2550" y="2300" width="172" height="298"/>
  <object id="333" gid="33" x="2392" y="2168" width="172" height="298"/>
  <object id="334" gid="33" x="2508" y="2168" width="172" height="298"/>
  <object id="335" gid="33" x="2472" y="2060" width="172" height="298"/>
  <object id="336" gid="33" x="2280" y="2160" width="172" height="298"/>
  <object id="337" gid="33" x="2316" y="2004" width="172" height="298"/>
  <object id="338" gid="33" x="2428" y="1928" width="172" height="298"/>
  <object id="339" gid="33" x="2596" y="2016" width="172" height="298"/>
  <object id="340" gid="33" x="2676" y="2148" width="172" height="298"/>
  <object id="341" gid="33" x="2648" y="2292" width="172" height="298"/>
  <object id="342" gid="33" x="2784" y="2236" width="172" height="298"/>
  <object id="343" gid="33" x="2752" y="2076" width="172" height="298"/>
  <object id="344" gid="33" x="2732" y="1984" width="172" height="298"/>
  <object id="345" gid="33" x="2588" y="1928" width="172" height="298"/>
  <object id="346" gid="33" x="2736" y="1828" width="172" height="298"/>
  <object id="347" gid="33" x="2248" y="1904" width="172" height="298"/>
  <object id="348" gid="33" x="2164" y="2016" width="172" height="298"/>
  <object id="349" gid="33" x="2188" y="2208" width="172" height="298"/>
  <object id="350" gid="33" x="2088" y="2180" width="172" height="298"/>
  <object id="351" gid="33" x="2052" y="1940" width="172" height="298"/>
  <object id="352" gid="33" x="2180" y="1852" width="172" height="298"/>
  <object id="353" gid="33" x="2356" y="1812" width="172" height="298"/>
  <object id="354" gid="33" x="2540" y="1776" width="172" height="298"/>
  <object id="355" gid="33" x="2376" y="1556" width="172" height="298"/>
  <object id="356" gid="33" x="2140" y="1692" width="172" height="298"/>
  <object id="357" gid="33" x="2272" y="1664" width="172" height="298"/>
  <object id="358" gid="33" x="2444" y="1672" width="172" height="298"/>
  <object id="359" gid="33" x="2584" y="1648" width="172" height="298"/>
  <object id="360" gid="33" x="2848" y="1844" width="172" height="298"/>
  <object id="361" gid="33" x="2880" y="2036" width="172" height="298"/>
  <object id="362" gid="33" x="2940" y="2196" width="172" height="298"/>
  <object id="363" gid="33" x="2028" y="2036" width="172" height="298"/>
  <object id="364" gid="33" x="2032" y="1828" width="172" height="298"/>
  <object id="365" gid="33" x="2116" y="1588" width="172" height="298"/>
  <object id="366" gid="33" x="2268" y="1504" width="172" height="298"/>
  <object id="367" gid="33" x="2688" y="1688" width="172" height="298"/>
  <object id="368" gid="33" x="2396" y="1476" width="172" height="298"/>
  <object id="369" gid="33" x="2208" y="1360" width="172" height="298"/>
  <object id="370" gid="33" x="2032" y="1488" width="172" height="298"/>
  <object id="371" gid="33" x="1944" y="1688" width="172" height="298"/>
  <object id="372" gid="33" x="1908" y="1916" width="172" height="298"/>
  <object id="373" gid="33" x="2996" y="1984" width="172" height="298"/>
  <object id="374" gid="33" x="3076" y="2172" width="172" height="298"/>
  <object id="375" gid="33" x="2872" y="2360" width="172" height="298"/>
  <object id="376" gid="33" x="2536" y="2424" width="172" height="298"/>
  <object id="377" gid="33" x="2684" y="2400" width="172" height="298"/>
  <object id="378" gid="33" x="3108" y="2032" width="172" height="298"/>
  <object id="379" gid="33" x="2824" y="1704" width="172" height="298"/>
  <object id="380" gid="33" x="2540" y="1504" width="172" height="298"/>
  <object id="381" gid="33" x="3020" y="2300" width="172" height="298"/>
  <object id="382" gid="33" x="1884" y="1776" width="172" height="298"/>
  <object id="383" gid="33" x="1944" y="1584" width="172" height="298"/>
  <object id="384" gid="33" x="2148" y="1472" width="172" height="298"/>
  <object id="385" gid="9" x="1112" y="752" width="1470" height="398"/>
  <object id="386" gid="12" x="1796" y="1220" width="662" height="856"/>
  <object id="387" gid="11" x="3428" y="2112" width="1478" height="856"/>
  <object id="388" gid="9" x="1284" y="4744" width="1470" height="398"/>
  <object id="389" gid="12" x="3352" y="4400" width="662" height="856"/>
  <object id="390" gid="27" x="3266" y="4244" width="1492" height="825"/>
  <object id="393" gid="31" x="2995" y="4380" width="891" height="361"/>
  <object id="394" gid="9" x="2944" y="4984" width="1470" height="398"/>
  <object id="395" gid="11" x="1848" y="4336" width="1478" height="856"/>
  <object id="396" gid="12" x="344" y="4240" width="662" height="856"/>
  <object id="397" gid="11" x="136" y="2408" width="1478" height="856"/>
  <object id="398" gid="9" x="1728" y="2184" width="1470" height="398" rotation="-90"/>
  <object id="399" gid="72" x="3945.45" y="4366.67" width="390" height="246"/>
  <object id="400" gid="76" x="4187.88" y="4275.76" width="156" height="174"/>
  <object id="401" gid="70" x="4381.82" y="4284.85" width="188" height="126"/>
  <object id="402" gid="124" x="5150" y="4350" width="64" height="136"/>
  <object id="403" gid="124" x="5228" y="4302" width="64" height="136"/>
  <object id="404" gid="138" x="5188" y="4454" width="82" height="120"/>
  <object id="406" gid="178" x="5364.5" y="826.5" width="739" height="335"/>
  <object id="407" gid="177" x="5362.5" y="842" width="965" height="328"/>
  <object id="408" gid="176" x="5388.5" y="530" width="877" height="508"/>
  <object id="409" gid="175" x="5012.5" y="734" width="259" height="294"/>
  <object id="410" gid="2147483655" x="5412.12" y="666.667" width="1432" height="1514"/>
  <object id="411" gid="9" x="5493.94" y="993.939" width="1470" height="398"/>
  <object id="412" gid="12" x="4872.73" y="433.333" width="662" height="856"/>
 </objectgroup>
 <objectgroup id="4" name="terreno"/>
 <objectgroup id="5" name="oggetti"/>
 <objectgroup color="#2e7d32" draworder="index" id="6" name="boschi" opacity="0.6"/>
 <objectgroup color="#ffb000" draworder="index" id="7" name="regia">
  <object id="1" gid="179" x="100" y="100" width="84" height="118"/>
  <object id="2" name="vista iniziale" type="vista" x="3215.39" y="4159.51" width="3000" height="2000"/>
  <object id="30" gid="107" x="4516.67" y="1335.33" width="180" height="772"/>
  <object id="31" gid="107" x="4515" y="1089" width="180" height="772"/>
  <object id="32" gid="107" x="4514.67" y="844" width="180" height="772"/>
  <object id="33" gid="107" x="4513.33" y="600" width="180" height="772"/>
  <object id="34" gid="107" x="4511.33" y="353.333" width="180" height="772"/>
  <object id="35" gid="107" x="4512" y="107" width="180" height="772"/>
  <object id="36" gid="24" x="5724" y="549" width="2304" height="1439"/>
  <object id="37" gid="25" x="4634" y="-422" width="1493" height="825"/>
  <object id="38" gid="26" x="3738.88" y="1053.24" width="1098" height="542"/>
  <object id="39" gid="29" x="3547.27" y="-139.485" width="961" height="583"/>
  <object id="40" gid="32" x="2417.21" y="325.273" width="2009" height="1405"/>
  <object id="41" gid="7" x="5008" y="1240" width="1432" height="1514"/>
  <object id="42" gid="6" x="3928" y="1928" width="2562" height="1642"/>
  <object id="283" gid="27" x="-842" y="380" width="1492" height="825"/>
  <object id="284" gid="28" x="4758" y="2412" width="1493" height="825"/>
  <object id="285" gid="60" x="4726.67" y="3104" width="932" height="586"/>
  <object id="286" gid="60" x="4984" y="3316" width="932" height="586"/>
  <object id="287" gid="33" x="2463.64" y="1033.33" width="172" height="298"/>
  <object id="288" gid="33" x="2521.21" y="927.273" width="172" height="298"/>
  <object id="289" gid="33" x="2618.18" y="900" width="172" height="298"/>
  <object id="290" gid="33" x="2624.24" y="760.606" width="172" height="298"/>
  <object id="291" gid="33" x="2487.88" y="781.818" width="172" height="298"/>
  <object id="292" gid="33" x="2342.42" y="966.667" width="172" height="298"/>
  <object id="293" gid="33" x="2403.03" y="869.697" width="172" height="298"/>
  <object id="294" gid="33" x="2312.12" y="851.515" width="172" height="298"/>
  <object id="295" gid="33" x="2336.36" y="712.121" width="172" height="298"/>
  <object id="296" gid="33" x="2484.85" y="642.424" width="172" height="298"/>
  <object id="297" gid="33" x="2303.03" y="536.364" width="172" height="298"/>
  <object id="298" gid="33" x="2251.52" y="706.061" width="172" height="298"/>
  <object id="299" gid="33" x="2233.33" y="875.758" width="172" height="298"/>
  <object id="300" gid="33" x="2069.7" y="681.818" width="172" height="298"/>
  <object id="301" gid="33" x="2166.67" y="554.545" width="172" height="298"/>
  <object id="302" gid="33" x="2163.64" y="796.97" width="172" height="298"/>
  <object id="303" gid="33" x="1966.67" y="536.364" width="172" height="298"/>
  <object id="304" gid="33" x="2109.09" y="384.848" width="172" height="298"/>
  <object id="305" gid="33" x="1987.88" y="400" width="172" height="298"/>
  <object id="306" gid="33" x="1781.82" y="490.909" width="172" height="298"/>
  <object id="307" gid="33" x="1857.58" y="369.697" width="172" height="298"/>
  <object id="308" gid="33" x="2033.33" y="251.515" width="172" height="298"/>
  <object id="309" gid="33" x="2103.03" y="509.091" width="172" height="298"/>
  <object id="310" gid="33" x="2200" y="381.818" width="172" height="298"/>
  <object id="311" gid="33" x="2200" y="251.515" width="172" height="298"/>
  <object id="312" gid="33" x="2296.97" y="336.364" width="172" height="298"/>
  <object id="313" gid="33" x="2418.18" y="430.303" width="172" height="298"/>
  <object id="314" gid="33" x="2451.52" y="521.212" width="172" height="298"/>
  <object id="315" gid="33" x="2569.7" y="527.273" width="172" height="298"/>
  <object id="316" gid="33" x="2706.06" y="648.485" width="172" height="298"/>
  <object id="317" gid="33" x="2593.94" y="627.273" width="172" height="298"/>
  <object id="318" gid="33" x="2706.06" y="484.848" width="172" height="298"/>
  <object id="319" gid="33" x="2533.33" y="406.061" width="172" height="298"/>
  <object id="320" gid="33" x="2418.18" y="269.697" width="172" height="298"/>
  <object id="321" gid="33" x="2303.03" y="209.091" width="172" height="298"/>
  <object id="322" gid="33" x="2200" y="96.9697" width="172" height="298"/>
  <object id="323" gid="33" x="2103.03" y="166.667" width="172" height="298"/>
  <object id="324" gid="33" x="1945.45" y="275.758" width="172" height="298"/>
  <object id="325" gid="77" x="2933.33" y="239.394" width="138" height="138"/>
  <object id="326" gid="78" x="2572.73" y="15.1515" width="266" height="338"/>
 </objectgroup>
</map>
