<?xml version="1.0" encoding="UTF-8"?>
<map version="1.10" tiledversion="1.11.2" orientation="orthogonal" renderorder="right-down" width="64" height="160" tilewidth="50" tileheight="50" infinite="0" backgroundcolor="#c0c0c0" nextlayerid="8" nextobjectid="478">
 <tileset firstgid="1" source="../tileset/terreno.tsx" />
 <tileset firstgid="13" source="../tileset/montagne_fiumi.tsx" />
 <tileset firstgid="33" source="../tileset/natura.tsx" />
 <tileset firstgid="59" source="../tileset/risorse.tsx" />
 <tileset firstgid="73" source="../tileset/edifici.tsx" />
 <tileset firstgid="108" source="../tileset/unita.tsx" />
 <tileset firstgid="115" source="../tileset/nemici.tsx" />
 <tileset firstgid="132" source="../tileset/citta.tsx" />
 <tileset firstgid="166" source="../tileset/regia.tsx" />
 <tileset firstgid="224" source="../tileset/nuovi.tsx" />
 <imagelayer id="1" name="sfondo" locked="1" repeatx="1" repeaty="1">
  <image source="../img/sfondi/green1.png" width="281" height="250" />
 </imagelayer>
 <objectgroup id="2" name="suolo" draworder="index">
  <object id="22" gid="11" x="286" y="7192" width="1478" height="856" />
  <object id="30" gid="4" x="939" y="7339" width="2652" height="504" rotation="-90" />
  <object id="31" gid="3221225479" x="1197" y="6209" width="1432" height="1514" />
  <object id="32" gid="8" x="1254" y="4414" width="1442" height="1110" rotation="-120" />
  <object id="114" gid="14" x="-1001" y="5956" width="1354" height="680" />
  <object id="115" gid="6" x="493" y="5053" width="2562" height="1642" rotation="-45" />
  <object id="116" gid="5" x="257" y="3214" width="2152" height="1170" />
  <object id="117" gid="9" x="710" y="5054" width="1470" height="398" />
  <object id="118" gid="10" x="715" y="641" width="1468" height="822" />
  <object id="119" gid="6" x="277" y="1874" width="2562" height="1642" />
  <object id="126" gid="5" x="190" y="895" width="2152" height="1170" />
  <object id="127" gid="8" x="582" y="2549" width="1442" height="1110" rotation="-270" />
  <object id="128" gid="8" x="1244" y="2184" width="1442" height="1110" rotation="-120" />
  <object id="148" gid="12" x="768" y="2975" width="662" height="856" />
  <object id="149" gid="9" x="1760" y="1497" width="1470" height="398" />
  <object id="150" gid="9" x="2098" y="3925" width="1470" height="398" />
  <object id="151" gid="9" x="1753" y="6011" width="1470" height="398" />
  <object id="380" gid="9" x="1821" y="7091" width="1470" height="398" />
  <object id="381" gid="10" x="2907" y="7388" width="1468" height="822" />
  <object id="384" gid="11" x="2676" y="5221" width="1478" height="856" />
  <object id="385" gid="5" x="1473" y="4516" width="2152" height="1170" />
  <object id="386" gid="13" x="1435" y="4911" width="1354" height="680" />
  <object id="387" gid="13" x="1240" y="3958" width="1354" height="680" />
  <object id="388" gid="13" x="-580" y="1013" width="1354" height="680" />
  <object id="389" gid="13" x="-530" y="5978" width="1354" height="680" />
  <object id="390" gid="13" x="2629" y="4435" width="1354" height="680" />
  <object id="391" gid="13" x="2662" y="2420" width="1354" height="680" />
 </objectgroup>
 <objectgroup id="3" name="erba e spighe" draworder="index">
  <object id="24" gid="52" x="437" y="5426" width="962" height="570" />
  <object id="113" gid="53" x="706" y="6774" width="888" height="570" />
  <object id="152" gid="51" x="1057" y="1759" width="932" height="586" />
  <object id="177" gid="52" x="1587" y="7120" width="962" height="570" />
  <object id="392" gid="51" x="2435" y="1053" width="932" height="586" />
 </objectgroup>
 <objectgroup id="4" name="terreno" draworder="topdown">
  <object id="25" gid="28" x="-479" y="3711" width="1493" height="825" />
  <object id="26" gid="24" x="849" y="1963" width="2304" height="1439" />
  <object id="27" gid="29" x="-165" y="1624" width="961" height="583" />
  <object id="28" gid="30" x="1170" y="1013" width="600" height="274" />
  <object id="29" gid="23" x="834" y="-208" width="1493" height="825" />
  <object id="188" gid="21" x="2048" y="7322" width="1312" height="776" />
  <object id="189" gid="31" x="2450" y="4093" width="891" height="361" />
  <object id="190" gid="24" x="1865" y="5593" width="2304" height="1439" />
  <object id="191" gid="28" x="2711" y="1297" width="1493" height="825" />
  <object id="382" gid="18" x="1490" y="-265" width="2179" height="993" />
 </objectgroup>
 <objectgroup id="5" name="oggetti" draworder="topdown">
  <object id="2" gid="148" x="86" y="7973" width="230" height="308" />
  <object id="3" gid="149" x="88" y="7775" width="280" height="290" />
  <object id="4" gid="150" x="242" y="7898" width="234" height="316" />
  <object id="5" gid="151" x="352" y="7766" width="308" height="316" />
  <object id="6" gid="152" x="442" y="7928" width="252" height="278" />
  <object id="7" gid="153" x="597" y="7798" width="278" height="308" />
  <object id="8" gid="154" x="689" y="7972" width="348" height="336" />
  <object id="9" gid="155" x="811" y="7916" width="284" height="342" />
  <object id="10" gid="156" x="809" y="7798" width="306" height="320" />
  <object id="11" gid="157" x="944" y="7978" width="232" height="270" />
  <object id="12" gid="143" x="1008" y="7734" width="230" height="270" />
  <object id="13" gid="144" x="1152" y="7963" width="232" height="304" />
  <object id="14" gid="145" x="1206" y="7752" width="292" height="304" />
  <object id="15" gid="146" x="1426" y="7785" width="284" height="348" />
  <object id="16" gid="164" x="1709" y="8030" width="878" height="842" />
  <object id="17" gid="96" x="186" y="7649" width="586" height="274" />
  <object id="18" gid="96" x="611" y="7649" width="586" height="274" />
  <object id="19" gid="96" x="1036" y="7648" width="586" height="274" />
  <object id="20" gid="96" x="1461" y="7648" width="586" height="274" />
  <object id="21" gid="96" x="1886" y="7648" width="586" height="274" />
  <object id="23" gid="144" x="1655" y="5550" width="232" height="304" />
  <object id="33" gid="33" x="61" y="6384" width="172" height="298" />
  <object id="34" gid="33" x="110" y="6497" width="172" height="298" />
  <object id="35" gid="39" x="181" y="6409" width="188" height="282" />
  <object id="36" gid="38" x="229" y="6516" width="214" height="248" />
  <object id="37" gid="36" x="168" y="6323" width="180" height="274" />
  <object id="38" gid="34" x="296" y="6369" width="216" height="244" />
  <object id="39" gid="35" x="323" y="6458" width="170" height="288" />
  <object id="40" gid="33" x="52" y="6607" width="172" height="298" />
  <object id="41" gid="34" x="-31" y="6500" width="216" height="244" />
  <object id="42" gid="34" x="64" y="6262" width="216" height="244" />
  <object id="43" gid="36" x="18" y="6149" width="180" height="274" />
  <object id="44" gid="114" x="1173" y="7485" width="66" height="148" />
  <object id="45" gid="114" x="901" y="7187" width="66" height="148" />
  <object id="46" gid="114" x="1114" y="7416" width="66" height="148" />
  <object id="47" gid="114" x="711" y="7373" width="66" height="148" />
  <object id="48" gid="114" x="745" y="7306" width="66" height="148" />
  <object id="49" gid="113" x="817" y="7377" width="78" height="222" />
  <object id="50" gid="113" x="903" y="7512" width="78" height="222" />
  <object id="51" gid="113" x="852" y="7303" width="78" height="222" />
  <object id="52" gid="111" x="806" y="7205" width="94" height="228" />
  <object id="53" gid="111" x="1020" y="7452" width="94" height="228" />
  <object id="54" gid="108" x="694" y="7486" width="102" height="158" />
  <object id="55" gid="108" x="806" y="7462" width="102" height="158" />
  <object id="56" gid="108" x="899" y="7422" width="102" height="158" />
  <object id="57" gid="108" x="1103" y="7537" width="102" height="158" />
  <object id="58" gid="59" x="314" y="7186" width="168" height="160" />
  <object id="59" gid="117" x="273" y="404" width="420" height="332" />
  <object id="60" gid="117" x="500" y="252" width="420" height="332" />
  <object id="61" gid="127" x="85" y="703" width="442" height="382" />
  <object id="62" gid="68" x="130" y="2277" width="138" height="138" />
  <object id="63" gid="68" x="609" y="2194" width="138" height="138" />
  <object id="64" gid="68" x="808" y="2107" width="138" height="138" />
  <object id="65" gid="123" x="1416" y="739" width="232" height="242" />
  <object id="66" gid="124" x="1645" y="828" width="216" height="240" />
  <object id="67" gid="120" x="1422" y="945" width="212" height="236" />
  <object id="68" gid="122" x="1833" y="973" width="218" height="254" />
  <object id="69" gid="150" x="388" y="2212" width="234" height="316" />
  <object id="70" gid="141" x="41" y="2497" width="266" height="344" />
  <object id="71" gid="149" x="1452" y="5572" width="280" height="290" />
  <object id="72" gid="151" x="1445" y="5425" width="308" height="316" />
  <object id="73" gid="132" x="363" y="6582" width="146" height="270" />
  <object id="74" gid="129" x="1043" y="5298" width="82" height="120" />
  <object id="75" gid="115" x="1163" y="5245" width="64" height="136" />
  <object id="76" gid="115" x="1270" y="5307" width="64" height="136" />
  <object id="77" gid="165" x="1912" y="3356" width="622" height="650" />
  <object id="78" gid="119" x="1537" y="3470" width="100" height="234" />
  <object id="79" gid="119" x="1752" y="3604" width="100" height="234" />
  <object id="80" gid="155" x="1654" y="5425" width="284" height="342" />
  <object id="81" gid="37" x="50" y="4595" width="186" height="268" />
  <object id="82" gid="40" x="188" y="4633" width="186" height="288" />
  <object id="83" gid="39" x="360" y="4568" width="188" height="282" />
  <object id="84" gid="39" x="308" y="4670" width="188" height="282" />
  <object id="85" gid="33" x="114" y="4693" width="172" height="298" />
  <object id="86" gid="33" x="236" y="4758" width="172" height="298" />
  <object id="87" gid="40" x="14" y="4755" width="186" height="288" />
  <object id="88" gid="40" x="133" y="4818" width="186" height="288" />
  <object id="89" gid="40" x="380" y="4784" width="186" height="288" />
  <object id="90" gid="37" x="435" y="4665" width="186" height="268" />
  <object id="91" gid="37" x="520" y="4568" width="186" height="268" />
  <object id="92" gid="36" x="600" y="4484" width="180" height="274" />
  <object id="93" gid="33" x="558" y="4674" width="172" height="298" />
  <object id="94" gid="36" x="638" y="4596" width="180" height="274" />
  <object id="95" gid="38" x="699" y="4450" width="214" height="248" />
  <object id="96" gid="38" x="748" y="4563" width="214" height="248" />
  <object id="97" gid="35" x="789" y="4394" width="170" height="288" />
  <object id="98" gid="39" x="678" y="4693" width="188" height="282" />
  <object id="99" gid="38" x="511" y="4776" width="214" height="248" />
  <object id="100" gid="38" x="296" y="4839" width="214" height="248" />
  <object id="101" gid="39" x="618" y="4796" width="188" height="282" />
  <object id="102" gid="38" x="440" y="4871" width="214" height="248" />
  <object id="103" gid="37" x="555" y="4901" width="186" height="268" />
  <object id="104" gid="33" x="341" y="4935" width="172" height="298" />
  <object id="105" gid="37" x="224" y="4883" width="186" height="268" />
  <object id="106" gid="36" x="33" y="4863" width="180" height="274" />
  <object id="107" gid="34" x="110" y="4935" width="216" height="244" />
  <object id="108" gid="34" x="243" y="4976" width="216" height="244" />
  <object id="109" gid="39" x="-1" y="4964" width="188" height="282" />
  <object id="110" gid="34" x="118" y="5044" width="216" height="244" />
  <object id="111" gid="36" x="-21" y="5075" width="180" height="274" />
  <object id="112" gid="34" x="-8" y="5206" width="216" height="244" />
  <object id="120" gid="36" x="1596" y="1211" width="180" height="274" />
  <object id="121" gid="33" x="1709" y="1987" width="172" height="298" />
  <object id="122" gid="36" x="1852" y="2057" width="180" height="274" />
  <object id="123" gid="38" x="1843" y="1920" width="214" height="248" />
  <object id="124" gid="38" x="1926" y="2115" width="214" height="248" />
  <object id="125" gid="37" x="1962" y="1987" width="186" height="268" />
  <object id="129" gid="34" x="22" y="1281" width="216" height="244" />
  <object id="130" gid="36" x="106" y="1330" width="180" height="274" />
  <object id="131" gid="36" x="34" y="1397" width="180" height="274" />
  <object id="132" gid="38" x="163" y="1455" width="214" height="248" />
  <object id="133" gid="36" x="200" y="1384" width="180" height="274" />
  <object id="134" gid="36" x="145" y="1273" width="180" height="274" />
  <object id="135" gid="40" x="281" y="1475" width="186" height="288" />
  <object id="136" gid="34" x="55" y="1508" width="216" height="244" />
  <object id="137" gid="38" x="228" y="1555" width="214" height="248" />
  <object id="138" gid="34" x="366" y="1577" width="216" height="244" />
  <object id="139" gid="35" x="136" y="1580" width="170" height="288" />
  <object id="140" gid="39" x="288" y="1648" width="188" height="282" />
  <object id="141" gid="38" x="423" y="1691" width="214" height="248" />
  <object id="142" gid="35" x="13" y="1645" width="170" height="288" />
  <object id="143" gid="36" x="173" y="1697" width="180" height="274" />
  <object id="144" gid="35" x="73" y="1711" width="170" height="288" />
  <object id="145" gid="35" x="13" y="1774" width="170" height="288" />
  <object id="146" gid="35" x="75" y="1200" width="170" height="288" />
  <object id="147" gid="38" x="15" y="1104" width="214" height="248" />
  <object id="153" gid="117" x="1453" y="2246" width="420" height="332" />
  <object id="154" gid="124" x="682" y="5000" width="216" height="240" />
  <object id="155" gid="121" x="777" y="4828" width="212" height="230" />
  <object id="156" gid="120" x="916" y="4986" width="212" height="236" />
  <object id="157" gid="68" x="1866" y="6732" width="138" height="138" />
  <object id="158" gid="39" x="1680" y="6381" width="188" height="282" />
  <object id="159" gid="40" x="1782" y="6411" width="186" height="288" />
  <object id="160" gid="35" x="1871" y="6408" width="170" height="288" />
  <object id="161" gid="38" x="1957" y="6445" width="214" height="248" />
  <object id="162" gid="38" x="1664" y="6432" width="214" height="248" />
  <object id="163" gid="36" x="1744" y="6496" width="180" height="274" />
  <object id="164" gid="35" x="1863" y="6547" width="170" height="288" />
  <object id="165" gid="35" x="1960" y="6553" width="170" height="288" />
  <object id="166" gid="38" x="744" y="5810" width="214" height="248" />
  <object id="167" gid="37" x="871" y="5786" width="186" height="268" />
  <object id="168" gid="36" x="682" y="5873" width="180" height="274" />
  <object id="169" gid="34" x="807" y="5896" width="216" height="244" />
  <object id="170" gid="39" x="970" y="5932" width="188" height="282" />
  <object id="171" gid="37" x="979" y="5847" width="186" height="268" />
  <object id="172" gid="33" x="1002" y="5741" width="172" height="298" />
  <object id="173" gid="40" x="1075" y="5994" width="186" height="288" />
  <object id="174" gid="33" x="1106" y="5881" width="172" height="298" />
  <object id="175" gid="39" x="1131" y="5755" width="188" height="282" />
  <object id="176" gid="143" x="477" y="6958" width="230" height="270" />
  <object id="178" gid="63" x="1483" y="6863" width="390" height="246" />
  <object id="179" gid="129" x="1313" y="7022" width="82" height="120" />
  <object id="180" gid="129" x="1384" y="7092" width="82" height="120" />
  <object id="181" gid="129" x="1452" y="7166" width="82" height="120" />
  <object id="182" gid="129" x="1269" y="7091" width="82" height="120" />
  <object id="183" gid="129" x="1325" y="7147" width="82" height="120" />
  <object id="184" gid="129" x="1386" y="7220" width="82" height="120" />
  <object id="185" gid="119" x="1033" y="5182" width="100" height="234" />
  <object id="186" gid="98" x="2091" y="7894" width="180" height="772" />
  <object id="187" gid="98" x="2091" y="8176" width="180" height="772" />
  <object id="195" gid="148" x="2651" y="2000" width="230" height="308" />
  <object id="196" gid="161" x="3116" y="2197" width="356" height="336" />
  <object id="197" gid="162" x="2737" y="2114" width="334" height="320" />
  <object id="198" gid="149" x="2883" y="2192" width="280" height="290" />
  <object id="199" gid="119" x="2490" y="2350" width="100" height="234" />
  <object id="200" gid="119" x="2430" y="2291" width="100" height="234" />
  <object id="201" gid="119" x="2342" y="2229" width="100" height="234" />
  <object id="202" gid="119" x="2434" y="2175" width="100" height="234" />
  <object id="203" gid="119" x="2504" y="2226" width="100" height="234" />
  <object id="204" gid="119" x="2572" y="2301" width="100" height="234" />
  <object id="205" gid="119" x="2510" y="2112" width="100" height="234" />
  <object id="206" gid="119" x="2575" y="2176" width="100" height="234" />
  <object id="207" gid="119" x="2646" y="2239" width="100" height="234" />
  <object id="208" gid="119" x="2529" y="2418" width="100" height="234" />
  <object id="209" gid="119" x="2614" y="2366" width="100" height="234" />
  <object id="210" gid="119" x="2701" y="2314" width="100" height="234" />
  <object id="211" gid="159" x="113" y="3714" width="316" height="338" />
  <object id="212" gid="145" x="2827" y="3811" width="292" height="304" />
  <object id="213" gid="143" x="2773" y="3696" width="230" height="270" />
  <object id="214" gid="155" x="2960" y="3674" width="284" height="342" />
  <object id="215" gid="158" x="3067" y="3803" width="252" height="306" />
  <object id="216" gid="126" x="2342" y="3822" width="88" height="190" />
  <object id="217" gid="126" x="2443" y="3795" width="88" height="190" />
  <object id="218" gid="126" x="2551" y="3754" width="88" height="190" />
  <object id="219" gid="126" x="2379" y="3906" width="88" height="190" />
  <object id="220" gid="126" x="2480" y="3877" width="88" height="190" />
  <object id="221" gid="126" x="2578" y="3859" width="88" height="190" />
  <object id="222" gid="126" x="2441" y="3980" width="88" height="190" />
  <object id="223" gid="126" x="2598" y="3965" width="88" height="190" />
  <object id="224" gid="126" x="2518" y="4039" width="88" height="190" />
  <object id="225" gid="126" x="2727" y="4006" width="88" height="190" />
  <object id="226" gid="126" x="2615" y="4080" width="88" height="190" />
  <object id="227" gid="126" x="2682" y="3902" width="88" height="190" />
  <object id="228" gid="126" x="2656" y="3781" width="88" height="190" />
  <object id="229" gid="126" x="2605" y="3660" width="88" height="190" />
  <object id="230" gid="126" x="2473" y="3676" width="88" height="190" />
  <object id="231" gid="126" x="2352" y="3701" width="88" height="190" />
  <object id="232" gid="126" x="2252" y="3760" width="88" height="190" />
  <object id="233" gid="126" x="2205" y="3910" width="88" height="190" />
  <object id="234" gid="126" x="2338" y="3959" width="88" height="190" />
  <object id="235" gid="126" x="2463" y="4061" width="88" height="190" />
  <object id="236" gid="126" x="2525" y="4123" width="88" height="190" />
  <object id="237" gid="36" x="2043" y="4154" width="180" height="274" />
  <object id="238" gid="40" x="2172" y="4197" width="186" height="288" />
  <object id="239" gid="39" x="2270" y="4197" width="188" height="282" />
  <object id="240" gid="38" x="2434" y="4209" width="214" height="248" />
  <object id="241" gid="36" x="2223" y="4287" width="180" height="274" />
  <object id="242" gid="33" x="2072" y="4244" width="172" height="298" />
  <object id="243" gid="37" x="2348" y="4314" width="186" height="268" />
  <object id="244" gid="39" x="2299" y="4418" width="188" height="282" />
  <object id="245" gid="39" x="2178" y="4336" width="188" height="282" />
  <object id="246" gid="40" x="1949" y="4238" width="186" height="288" />
  <object id="247" gid="37" x="2486" y="4270" width="186" height="268" />
  <object id="248" gid="34" x="2443" y="4398" width="216" height="244" />
  <object id="249" gid="37" x="2057" y="4361" width="186" height="268" />
  <object id="250" gid="37" x="2182" y="4428" width="186" height="268" />
  <object id="251" gid="35" x="1969" y="4295" width="170" height="288" />
  <object id="252" gid="34" x="1980" y="4391" width="216" height="244" />
  <object id="253" gid="37" x="1902" y="4115" width="186" height="268" />
  <object id="254" gid="35" x="1771" y="4133" width="170" height="288" />
  <object id="255" gid="37" x="1842" y="4225" width="186" height="268" />
  <object id="256" gid="40" x="1855" y="4309" width="186" height="288" />
  <object id="257" gid="39" x="1891" y="4412" width="188" height="282" />
  <object id="258" gid="39" x="1771" y="4180" width="188" height="282" />
  <object id="259" gid="38" x="1662" y="4080" width="214" height="248" />
  <object id="260" gid="34" x="1643" y="4162" width="216" height="244" />
  <object id="261" gid="40" x="1736" y="4266" width="186" height="288" />
  <object id="262" gid="38" x="1607" y="4234" width="214" height="248" />
  <object id="263" gid="39" x="1660" y="4363" width="188" height="282" />
  <object id="264" gid="37" x="1576" y="4307" width="186" height="268" />
  <object id="265" gid="39" x="1807" y="4369" width="188" height="282" />
  <object id="266" gid="35" x="1799" y="4484" width="170" height="288" />
  <object id="267" gid="37" x="1541" y="4354" width="186" height="268" />
  <object id="268" gid="37" x="1627" y="4426" width="186" height="268" />
  <object id="269" gid="37" x="1754" y="4369" width="186" height="268" />
  <object id="270" gid="39" x="1727" y="4479" width="188" height="282" />
  <object id="271" gid="34" x="2100" y="4469" width="216" height="244" />
  <object id="272" gid="39" x="1928" y="4473" width="188" height="282" />
  <object id="273" gid="38" x="2023" y="4479" width="214" height="248" />
  <object id="274" gid="38" x="2260" y="4461" width="214" height="248" />
  <object id="275" gid="37" x="2412" y="4484" width="186" height="268" />
  <object id="276" gid="40" x="2361" y="4141" width="186" height="288" />
  <object id="277" gid="34" x="2506" y="4429" width="216" height="244" />
  <object id="278" gid="37" x="2640" y="4433" width="186" height="268" />
  <object id="279" gid="38" x="763" y="851" width="214" height="248" />
  <object id="280" gid="39" x="876" y="952" width="188" height="282" />
  <object id="281" gid="39" x="888" y="809" width="188" height="282" />
  <object id="282" gid="38" x="937" y="702" width="214" height="248" />
  <object id="283" gid="40" x="1016" y="781" width="186" height="288" />
  <object id="284" gid="34" x="1031" y="925" width="216" height="244" />
  <object id="285" gid="40" x="1190" y="992" width="186" height="288" />
  <object id="286" gid="39" x="1151" y="842" width="188" height="282" />
  <object id="287" gid="38" x="1105" y="653" width="214" height="248" />
  <object id="288" gid="39" x="1025" y="552" width="188" height="282" />
  <object id="289" gid="34" x="934" y="452" width="216" height="244" />
  <object id="290" gid="35" x="1141" y="568" width="170" height="288" />
  <object id="291" gid="39" x="1266" y="604" width="188" height="282" />
  <object id="292" gid="38" x="1279" y="745" width="214" height="248" />
  <object id="293" gid="33" x="1288" y="903" width="172" height="298" />
  <object id="294" gid="33" x="1404" y="574" width="172" height="298" />
  <object id="295" gid="39" x="1581" y="595" width="188" height="282" />
  <object id="296" gid="38" x="1498" y="449" width="214" height="248" />
  <object id="297" gid="36" x="977" y="1025" width="180" height="274" />
  <object id="298" gid="37" x="1102" y="1044" width="186" height="268" />
  <object id="299" gid="40" x="711" y="891" width="186" height="288" />
  <object id="300" gid="38" x="812" y="1019" width="214" height="248" />
  <object id="301" gid="36" x="1013" y="1135" width="180" height="274" />
  <object id="302" gid="36" x="1151" y="1096" width="180" height="274" />
  <object id="303" gid="34" x="903" y="1120" width="216" height="244" />
  <object id="304" gid="35" x="699" y="980" width="170" height="288" />
  <object id="305" gid="35" x="583" y="925" width="170" height="288" />
  <object id="306" gid="40" x="687" y="1035" width="186" height="288" />
  <object id="307" gid="33" x="464" y="931" width="172" height="298" />
  <object id="308" gid="38" x="1508" y="650" width="214" height="248" />
  <object id="309" gid="34" x="1602" y="723" width="216" height="244" />
  <object id="310" gid="34" x="1779" y="662" width="216" height="244" />
  <object id="311" gid="36" x="1733" y="717" width="180" height="274" />
  <object id="312" gid="33" x="1889" y="574" width="172" height="298" />
  <object id="313" gid="40" x="2020" y="555" width="186" height="288" />
  <object id="314" gid="33" x="3049" y="2971" width="172" height="298" />
  <object id="315" gid="39" x="3123" y="3059" width="188" height="282" />
  <object id="316" gid="34" x="3193" y="3154" width="216" height="244" />
  <object id="317" gid="33" x="3086" y="3230" width="172" height="298" />
  <object id="318" gid="34" x="3030" y="3052" width="216" height="244" />
  <object id="319" gid="39" x="3157" y="2942" width="188" height="282" />
  <object id="320" gid="37" x="2910" y="2957" width="186" height="268" />
  <object id="321" gid="33" x="3005" y="2866" width="172" height="298" />
  <object id="322" gid="36" x="3127" y="2830" width="180" height="274" />
  <object id="323" gid="36" x="1794" y="5540" width="180" height="274" />
  <object id="324" gid="34" x="1919" y="5605" width="216" height="244" />
  <object id="325" gid="38" x="1931" y="5420" width="214" height="248" />
  <object id="326" gid="36" x="1780" y="5364" width="180" height="274" />
  <object id="327" gid="38" x="1870" y="5486" width="214" height="248" />
  <object id="328" gid="35" x="2014" y="5522" width="170" height="288" />
  <object id="329" gid="38" x="2080" y="5623" width="214" height="248" />
  <object id="330" gid="34" x="1919" y="5278" width="216" height="244" />
  <object id="331" gid="39" x="2046" y="5334" width="188" height="282" />
  <object id="332" gid="33" x="2085" y="5420" width="172" height="298" />
  <object id="333" gid="34" x="2190" y="5522" width="216" height="244" />
  <object id="334" gid="35" x="2224" y="5374" width="170" height="288" />
  <object id="335" gid="40" x="2139" y="5271" width="186" height="288" />
  <object id="336" gid="39" x="2039" y="5205" width="188" height="282" />
  <object id="337" gid="39" x="2251" y="5256" width="188" height="282" />
  <object id="338" gid="36" x="2358" y="5422" width="180" height="274" />
  <object id="339" gid="37" x="2305" y="5510" width="186" height="268" />
  <object id="340" gid="39" x="2263" y="5647" width="188" height="282" />
  <object id="341" gid="37" x="2170" y="5657" width="186" height="268" />
  <object id="342" gid="40" x="2468" y="5559" width="186" height="288" rotation="2" />
  <object id="343" gid="38" x="2356" y="5256" width="214" height="248" />
  <object id="344" gid="35" x="2341" y="5618" width="170" height="288" />
  <object id="345" gid="34" x="2458" y="5313" width="216" height="244" />
  <object id="346" gid="39" x="2563" y="5417" width="188" height="282" />
  <object id="347" gid="115" x="1488" y="7281" width="64" height="136" />
  <object id="348" gid="115" x="1584" y="7256" width="64" height="136" />
  <object id="349" gid="115" x="1494" y="7053" width="64" height="136" />
  <object id="350" gid="115" x="1408" y="7000" width="64" height="136" />
  <object id="351" gid="112" x="1151" y="7241" width="88" height="180" />
  <object id="352" gid="112" x="1195" y="7332" width="88" height="180" />
  <object id="353" gid="162" x="2810" y="7654" width="334" height="320" />
  <object id="354" gid="126" x="2450" y="7836" width="88" height="190" />
  <object id="355" gid="126" x="2653" y="7836" width="88" height="190" />
  <object id="356" gid="126" x="2521" y="7749" width="88" height="190" />
  <object id="357" gid="126" x="2414" y="7741" width="88" height="190" />
  <object id="358" gid="126" x="2488" y="7661" width="88" height="190" />
  <object id="359" gid="126" x="1349" y="5172" width="88" height="190" />
  <object id="360" gid="126" x="1028" y="5241" width="88" height="190" />
  <object id="361" gid="126" x="1193" y="5194" width="88" height="190" />
  <object id="362" gid="126" x="1376" y="5282" width="88" height="190" />
  <object id="363" gid="44" x="2705" y="7959" width="170" height="288" />
  <object id="364" gid="49" x="2808" y="7927" width="186" height="288" />
  <object id="365" gid="43" x="2905" y="7859" width="216" height="244" />
  <object id="366" gid="48" x="3047" y="7783" width="188" height="282" />
  <object id="367" gid="48" x="3103" y="7695" width="188" height="282" />
  <object id="368" gid="48" x="3209" y="7572" width="188" height="282" />
  <object id="369" gid="42" x="3180" y="7752" width="172" height="298" />
  <object id="370" gid="41" x="3134" y="7866" width="172" height="298" />
  <object id="371" gid="44" x="3027" y="7863" width="170" height="288" />
  <object id="372" gid="49" x="2972" y="7997" width="186" height="288" />
  <object id="373" gid="41" x="3116" y="7988" width="172" height="298" />
  <object id="374" gid="48" x="2867" y="7973" width="188" height="282" />
  <object id="375" gid="48" x="2734" y="8038" width="188" height="282" />
  <object id="376" gid="46" x="2584" y="8023" width="186" height="268" />
  <object id="377" gid="45" x="3166" y="7605" width="180" height="274" />
  <object id="378" gid="49" x="2963" y="7794" width="186" height="288" />
  <object id="379" gid="133" x="1324" y="7977" width="122" height="192" />
  <object id="383" gid="68" x="2166" y="449" width="138" height="138" />
  <object id="393" gid="46" x="2405" y="281" width="186" height="268" />
  <object id="394" gid="48" x="2423" y="406" width="188" height="282" />
  <object id="395" gid="44" x="2518" y="479" width="170" height="288" />
  <object id="396" gid="47" x="2585" y="546" width="214" height="248" />
  <object id="397" gid="47" x="2679" y="604" width="214" height="248" />
  <object id="398" gid="47" x="2765" y="571" width="214" height="248" />
  <object id="399" gid="41" x="2554" y="375" width="172" height="298" />
  <object id="400" gid="48" x="2667" y="458" width="188" height="282" />
  <object id="401" gid="44" x="2515" y="546" width="170" height="288" />
  <object id="402" gid="43" x="2634" y="632" width="216" height="244" />
  <object id="403" gid="49" x="2823" y="616" width="186" height="288" />
  <object id="404" gid="46" x="2954" y="543" width="186" height="268" />
  <object id="405" gid="42" x="2789" y="415" width="172" height="298" />
  <object id="406" gid="48" x="2722" y="290" width="188" height="282" />
  <object id="407" gid="47" x="2591" y="229" width="214" height="248" />
  <object id="408" gid="49" x="2505" y="110" width="186" height="288" />
  <object id="409" gid="42" x="2689" y="116" width="172" height="298" />
  <object id="410" gid="47" x="2814" y="201" width="214" height="248" />
  <object id="411" gid="43" x="2890" y="327" width="216" height="244" />
  <object id="412" gid="45" x="2914" y="424" width="180" height="274" />
  <object id="413" gid="49" x="3040" y="443" width="186" height="288" />
  <object id="414" gid="42" x="3027" y="269" width="172" height="298" />
  <object id="415" gid="44" x="2927" y="98" width="170" height="288" />
  <object id="416" gid="41" x="3110" y="137" width="172" height="298" />
  <object id="417" gid="49" x="3110" y="345" width="186" height="288" />
  <object id="418" gid="45" x="3137" y="214" width="180" height="274" />
  <object id="419" gid="49" x="2948" y="201" width="186" height="288" />
  <object id="420" gid="41" x="2646" y="327" width="172" height="298" />
  <object id="421" gid="49" x="2496" y="235" width="186" height="288" />
  <object id="422" gid="47" x="2817" y="61" width="214" height="248" />
  <object id="423" gid="49" x="2676" y="201" width="186" height="288" />
  <object id="424" gid="45" x="3030" y="110" width="180" height="274" />
  <object id="425" gid="43" x="3003" y="305" width="216" height="244" />
  <object id="426" gid="115" x="2281" y="1178" width="64" height="136" />
  <object id="427" gid="115" x="2372" y="1302" width="64" height="136" />
  <object id="428" gid="115" x="2488" y="1380" width="64" height="136" />
  <object id="429" gid="115" x="2552" y="1502" width="64" height="136" />
  <object id="430" gid="115" x="2391" y="1134" width="64" height="136" />
  <object id="431" gid="115" x="2478" y="1270" width="64" height="136" />
  <object id="432" gid="115" x="2586" y="1344" width="64" height="136" />
  <object id="433" gid="115" x="2664" y="1478" width="64" height="136" />
  <object id="434" gid="115" x="2491" y="1138" width="64" height="136" />
  <object id="435" gid="115" x="2678" y="1264" width="64" height="136" />
  <object id="436" gid="115" x="2759" y="1436" width="64" height="136" />
  <object id="437" gid="115" x="2534" y="1222" width="64" height="136" />
  <object id="438" gid="149" x="2753" y="1117" width="280" height="290" />
  <object id="439" gid="154" x="2826" y="1019" width="348" height="336" />
  <object id="440" gid="142" x="2994" y="1141" width="298" height="368" />
  <object id="441" gid="126" x="273" y="3580" width="88" height="190" />
  <object id="442" gid="126" x="319" y="3681" width="88" height="190" />
  <object id="443" gid="126" x="423" y="3763" width="88" height="190" />
  <object id="444" gid="126" x="341" y="3566" width="88" height="190" />
  <object id="445" gid="126" x="406" y="3652" width="88" height="190" />
  <object id="446" gid="115" x="492" y="3706" width="64" height="136" />
  <object id="447" gid="115" x="241" y="2384" width="64" height="136" />
  <object id="448" gid="115" x="361" y="2371" width="64" height="136" />
  <object id="449" gid="115" x="447" y="2332" width="64" height="136" />
  <object id="450" gid="115" x="564" y="2316" width="64" height="136" />
  <object id="451" gid="115" x="654" y="2277" width="64" height="136" />
  <object id="452" gid="115" x="742" y="2250" width="64" height="136" />
  <object id="453" gid="115" x="284" y="2478" width="64" height="136" />
  <object id="454" gid="115" x="406" y="2452" width="64" height="136" />
  <object id="455" gid="115" x="504" y="2412" width="64" height="136" />
  <object id="456" gid="115" x="598" y="2396" width="64" height="136" />
  <object id="457" gid="115" x="684" y="2378" width="64" height="136" />
  <object id="458" gid="115" x="757" y="2350" width="64" height="136" />
  <object id="459" gid="115" x="822" y="2301" width="64" height="136" />
  <object id="468" gid="38" x="1784" y="2741" width="214" height="248" />
  <object id="469" gid="38" x="1853" y="2831" width="214" height="248" />
  <object id="470" gid="39" x="1908" y="2705" width="188" height="282" />
  <object id="471" gid="36" x="1733" y="2789" width="180" height="274" />
  <object id="472" gid="39" x="1958" y="2863" width="188" height="282" />
  <object id="473" gid="40" x="1941" y="2775" width="186" height="288" />
  <object id="474" gid="38" x="1959" y="2559" width="214" height="248" />
  <object id="475" gid="37" x="2039" y="2450" width="186" height="268" />
  <object id="477" gid="144" x="1695" y="7025" width="232" height="304" />
 </objectgroup>
 <objectgroup id="6" name="boschi" draworder="index" color="#2e7d32" opacity="0.6" />
 <objectgroup id="7" name="regia" draworder="index" color="#ffb000">
  <object id="1" gid="166" x="3052" y="6899" width="84" height="118" />
  <object id="192" gid="208" x="6825" y="6133" width="98" height="118" />
  <object id="193" gid="208" x="4871" y="3941" width="98" height="118" />
  <object id="194" gid="208" x="2484" y="8731" width="98" height="118" />
  <object id="460" gid="168" x="291" y="367" width="112" height="118" />
  <object id="461" gid="168" x="522" y="223" width="112" height="118" />
  <object id="462" gid="168" x="90" y="657" width="112" height="118" />
  <object id="463" gid="169" x="1472" y="2220" width="102" height="118" />
  <object id="464" gid="170" x="365" y="361" width="102" height="118" rotation="-310" />
  <object id="465" gid="170" x="602" y="216" width="102" height="118" rotation="-280" />
  <object id="466" gid="170" x="176" y="656" width="102" height="118" />
  <object id="467" gid="170" x="1382" y="2229" width="102" height="118" rotation="-200" />
  <object id="476" name="vista iniziale" type="vista" x="200" y="6500" width="3000" height="2000" />
 </objectgroup>
</map>
